!!!!SEGMENT: pl-wru--50044-muz--001-009_buchner-philipp-friedrich--plectrum-musicum-sonata-ix.krn
!!!cenid: 16xx:1810
!!!COM: Buchner, Philipp Friedrich
!!!COM-rismID: pe30013776
!!!CDT: 1614/09/10-1669/03/23
!!!CNT: German
!!!GTL: Plectrum musicum
!!!OTL: Sonata IX
!!!OMV: 009
!!!PDT: 1662
!!!AGN: Secular; Sonata
!!!YEC: Copyright 2022 Narodowy Instytut Fryderyka Chopina (https://polishscores.org)
!!!YEM: License CC-BY-4.0 (https://creativecommons.org/licenses/by/4.0)
!!!SMS-siglum: PL-WRu
!!!SMS-shelfmark: 50044 Muz.
!!!SMS-shelfwork: 001-009 G
!!!SMS-variant:
!!!SMS-altvar:
!!!NIFC-rismSourceID: 990007465
!!!NIFC-rismChildID: 990007465
!!!NIFC-islandoraID: none
!!!URL-pdf-islandora:
!!!URL-scan: https://www.bibliotekacyfrowa.pl/dlibra/doccontent?id=116 @EN{Scan on Digital Library of University of Wroclaw} @PL{Skany w portalu Biblioteka Cyfrowa Uniwersytetu Wrocławskiego}
!!!IIIF:
!!!ONB-nifc: UWAGA: Fagotto I: s. 46 (wg poprawek partia wydrukowana w partii Viola da Gamba), Fagotto II: s. 55-56, Bassus: s. 71, Bassus continuus: s. 86
!!!AIN: 2 fagot
!!!key: C
**kern	**fba	**kern	**fba	**kern	**kern
*part4	*	*part3	*	*part2	*part1
*staff4	*	*staff3	*	*staff2	*staff1
*I"BASSUS CONTINUUS.	*	*I"BASSUS	*	*I"FAGOTTO II	*I"1. fagott.
*I'bc	*	*I'b	*	*I'fag 2	*I'fag 1
*	*	*	*	*ICww	*ICww
*	*	*	*	*Ifagot	*Ifagot
*IGcont	*	*IGcont	*	*	*
*clefF4	*	*clefF4	*	*clefF4	*clefF4
*k[]	*	*k[]	*	*k[]	*k[]
*C:	*	*C:	*	*C:	*C:
*M2/2	*	*M2/2	*	*M2/2	*M2/2
*met(C|)	*	*met(C|)	*	*met(C|)	*met(C|)
=1-	=1-	=1-	=1-	=1-	=1-
!LO:TX:b:t=Largo.	!	!LO:TX:b:t=Largo.	!	!	!LO:TX:b:t=Largo.
1C	.	1C	.	1r	4B\
.	.	.	.	.	4G\
.	.	.	.	.	4E\
!	!	!	!	!	!LO:TX:t=P:problem:kreska pseudotaktowa
.	.	.	.	.	4C/
=2-	=2-	=2-	=2-	=2-	=2-
!	!	!	!	!LO:TX:b:t=Largo.	!
1AA	.	1AA	.	4A\	1r
.	.	.	.	4E\	.
.	.	.	.	4C/	.
.	.	.	.	4AA/	.
=3-	=3-	=3-	=3-	=3-	=3-
1FF	.	1FF	.	1r	4F\
.	.	.	.	.	4C/
.	.	.	.	.	4AA/
.	.	.	.	.	4FF/
=4-	=4-	=4-	=4-	=4-	=4-
1DD	.	1DD	.	4D/	2r
.	.	.	.	4AA/	.
.	.	.	.	4FF/	4r
.	.	.	.	4DD/	8r
.	.	.	.	.	8F\
=5-	=5-	=5-	=5-	=5-	=5-
1BB-X	.	1BB-X	.	8r	8.D/
.	.	.	.	8F\	.
.	.	.	.	.	16C/
.	.	.	.	8.D/	8.BB-X/
.	.	.	.	16C/	16C/
.	.	.	.	8.BB-X/	8.D/
.	.	.	.	16C/	16E\
.	.	.	.	8.D/	8.F\
!	!	!	!	!LO:TX:t=P:problem:kreska pseudotaktowa	!LO:TX:t=P:problem:kreska pseudotaktowa
.	.	.	.	16E\	16G\
=6-	=6-	=6-	=6-	=6-	=6-
0FF	.	0FF	.	8.F\	8.A\
.	.	.	.	16G\	16B\
.	.	.	.	8.A\	4c\
.	.	.	.	16B\	.
.	.	.	.	4c\	8r
.	.	.	.	.	16A\
.	.	.	.	.	16B\
!	!	!	!	!LO:TX:t=P:problem:kreska pseudotaktowa	!
.	.	.	.	4r	8c\
!	!	!	!	!	!LO:TX:t=P:problem:kreska pseudotaktowa
.	.	.	.	.	8c\
=7-	=7-	=7-	=7-	=7-	=7-
.	.	.	.	8r	8A\
.	.	.	.	16A\	16F\
.	.	.	.	16B\	16G\
.	.	.	.	8c\	8A\
.	.	.	.	8c\	8A\
.	.	.	.	8A\	4F\
.	.	.	.	16F\	.
.	.	.	.	16G\	.
.	.	.	.	8A\	4r
!	!	!	!	!LO:TX:t=P:problem:kreska pseudotaktowa	!
.	.	.	.	8A\	.
*	*	*	*	*	*custos:c
!	!	!	!	!	!LO:LB:g=original
=8-	=8-	=8-	=8-	=8-	=8-
2FF/	5:6 3:4	2FF/	5:6 3:4	4F\	16r
.	.	.	.	.	16c\
.	.	.	.	.	16A\
.	.	.	.	.	16c\
.	.	.	.	4r	16A\
.	.	.	.	.	16F\
.	.	.	.	.	16F\
.	.	.	.	.	32E\
.	.	.	.	.	32D/
[2C/	.	[2C/	.	16r	4.C/
.	.	.	.	16c\	.
.	.	.	.	16A\	.
.	.	.	.	16c\	.
*	*	*	*	*custos:A	*
!	!	!	!	!LO:LB:g=original	!
.	.	.	.	16A\	.
.	.	.	.	16F\	.
!	!	!	!	!	!LO:TX:t=P:problem:kreska pseudotaktowa
.	.	.	.	16F\	8D/
.	.	.	.	32E\	.
!	!	!	!	!LO:TX:t=P:problem:kreska pseudotaktowa	!
.	.	.	.	32D/	.
=9-	=9-	=9-	=9-	=9-	=9-
4C/]	.	4C/]	.	4C/	16E\
.	.	.	.	.	16E\
.	.	.	.	.	16D/
.	.	.	.	.	16E\
4BB-X/	.	4BB-X/	.	16BB-X/	4.F\
.	.	.	.	16BB-/	.
.	.	.	.	16AA/	.
.	.	.	.	16BB-/	.
2C/	4:3	2C/	4:3	4.C/	.
.	.	.	.	.	8F\
!	!	!	!	!	!LO:TX:t=P:problem:kreska pseudotaktowa
.	.	.	.	.	4E\
.	.	.	.	8C/	.
=10-	=10-	=10-	=10-	=10-	=10-
[0FF	.	[0FF	.	2FF/	2F\
.	.	.	.	2r	8r
.	.	.	.	.	16A\
.	.	.	.	.	16B\
.	.	.	.	.	8c\
.	.	.	.	.	8c\
=11-	=11-	=11-	=11-	=11-	=11-
.	.	.	.	8r	8A\
.	.	.	.	16A\	16F\
.	.	.	.	16B\	16G\
.	.	.	.	8c\	8A\
.	.	.	.	8c\	8A\
.	.	.	.	8A\	4F\
.	.	.	.	16F\	.
.	.	.	.	16G\	.
.	.	.	.	8A\	8r
!	!	!	!	!	!LO:TX:t=P:problem:kreska pseudotaktowa
.	.	.	.	8A\	8C/
=12-	=12-	=12-	=12-	=12-	=12-
1FF]	.	1FF]	.	8F\	8.AA/
.	.	.	.	8C/	.
.	.	.	.	.	16GG/
.	.	.	.	8.AA/	8.FF/
.	.	.	.	16GG/	16GG/
.	.	.	.	8.FF/	8.AA/
.	.	.	.	16GG/	16BBny/
.	.	.	.	8.AA/	8.C/
!	!	!	!	!LO:TX:t=P:problem:kreska pseudotaktowa	!
.	.	.	.	16BBny/	16D/
*	*	*	*	*	*custos:E
!	!	!	!	!	!LO:LB:g=original
=13-	=13-	=13-	=13-	=13-	=13-
[0C	.	[0C	.	8.C/	8.E\
.	.	.	.	16D/	16F\
.	.	.	.	8.E\	4G\
.	.	.	.	16F\	.
.	.	.	.	4G\	8r
.	.	.	.	.	16E\
.	.	.	.	.	16F\
.	.	.	.	4r	8G\
!	!	!	!	!	!LO:TX:t=P:problem:kreska pseudotaktowa
.	.	.	.	.	8G\
*	*	*	*	*custos:E	*
!	!	!	!	!LO:LB:g=original	!
=14-	=14-	=14-	=14-	=14-	=14-
.	.	.	.	8r	8E\
.	.	.	.	16E\	16C/
.	.	.	.	16F\	16D/
.	.	.	.	8G\	8E\
.	.	.	.	8G\	8E\
.	.	.	.	8E\	4C/
.	.	.	.	16C/	.
.	.	.	.	16D/	.
!	!	!	!	!	!LO:TX:t=P:problem:kreska pseudotaktowa
.	.	.	.	8E\	4r
!	!	!	!	!LO:TX:t=P:problem:kreska pseudotaktowa	!
.	.	.	.	8E\	.
=15-	=15-	=15-	=15-	=15-	=15-
2C/]	.	2C/]	.	4C/	16r
.	.	.	.	.	16G\
.	.	.	.	.	16E\
.	.	.	.	.	16G\
.	.	.	.	4r	16E\
.	.	.	.	.	16C/
.	.	.	.	.	16C/
.	.	.	.	.	32BB/
.	.	.	.	.	32AA/
[2GG/	.	[2GG/	.	16r	4.GG/
.	.	.	.	16G\	.
.	.	.	.	16E\	.
.	.	.	.	16G\	.
.	.	.	.	16E\	.
.	.	.	.	16C/	.
.	.	.	.	16C/	8AA/
.	.	.	.	32BB/	.
!	!	!	!	!LO:TX:t=P:problem:kreska pseudotaktowa	!
.	.	.	.	32AA/	.
=16-	=16-	=16-	=16-	=16-	=16-
4GG/]	.	4GG/]	.	4GG/	16BB/
.	.	.	.	.	16BB/
.	.	.	.	.	16AA/
.	.	.	.	.	16BB/
4FF/	.	4FF/	.	16FF/	4.C/
.	.	.	.	16FF/	.
.	.	.	.	16EE/	.
.	.	.	.	16FF/	.
2GG/	4:3	2GG/	4:3	4.GG/	.
.	.	.	.	.	8C/
.	.	.	.	.	4BB/
.	.	.	.	8GG/	.
=17-	=17-	=17-	=17-	=17-	=17-
!	!	!	!	!LO:TX:t=P:problem:kreska pseudotaktowa	!LO:TX:t=P:problem:kreska pseudotaktowa
1C	.	1C	.	1C	1C
=18-	=18-	=18-	=18-	=18-	=18-
2C/	.	2C/	.	2r	8r
.	.	.	.	.	8c\
.	.	.	.	.	8c\
.	.	.	.	.	8c\
4F\	.	4F\	.	4r	8A\
.	.	.	.	.	8c\
4E\	6	4E\	6	8r	8G\
!	!	!	!	!LO:TX:t=P:problem:kreska pseudotaktowa	!
.	.	.	.	8E\	8c\
*	*	*	*	*	*custos:F
!	!	!	!	!	!LO:LB:g=original
=19-	=19-	=19-	=19-	=19-	=19-
4F\	.	4F\	.	4F\	8F\
.	.	.	.	.	8c\
4E\	6	4E\	6	8r	8E\
.	.	.	.	8G\	8c\
!LO:TX:t=P:problem:kreska pseudotaktowa	!	!LO:TX:t=P:problem:kreska pseudotaktowa	!	!	!
2D/	7:6	2D/	7:6	4A\	8D/
.	.	.	.	.	8c\
.	.	.	.	8r	8B\
!	!	!	!	!LO:TX:t=P:problem:kreska pseudotaktowa	!LO:TX:t=P:problem:kreska pseudotaktowa
.	.	.	.	8B\	8D/
=20-	=20-	=20-	=20-	=20-	=20-
2C/	.	2C/	.	8c\	16E\
.	.	.	.	.	16C/
.	.	.	.	8G\	16G\
.	.	.	.	.	16E\
.	.	.	.	8G\	16c\
.	.	.	.	.	16G\
.	.	.	.	8G\	16E\
.	.	.	.	.	16C/
*	*	*	*	*custos:E	*
!	!	!	!	!LO:LB:g=original	!
4C/	.	4C/	.	8E\	4r
.	.	.	.	8G\	.
4BBny/	6	4BBny/	6	8D/	8r
!	!	!	!	!LO:TX:t=P:problem:kreska pseudotaktowa	!
.	.	.	.	8G\	8BB/
=21-	=21-	=21-	=21-	=21-	=21-
4C/	.	4C/	.	8C/	4C/
.	.	.	.	8G\	.
4BB/	6	4BB/	6	8BB/	8r
.	.	.	.	8G\	8D/
!LO:TX:t=P:problem:kreska pseudotaktowa	!	!LO:TX:t=P:problem:kreska pseudotaktowa	!	!	!
2AA/	7:6 #	2AA/	7:6 #	8AA/	4E\
.	.	.	.	8G\	.
.	.	.	.	8F#X\	8r
!	!	!	!	!LO:TX:t=P:problem:kreska pseudotaktowa	!LO:TX:t=P:problem:kreska pseudotaktowa
.	.	.	.	8AA/	8F#X\
=22-	=22-	=22-	=22-	=22-	=22-
2GG/	.	2GG/	.	16BB/	4G\
.	.	.	.	16GG/	.
.	.	.	.	16D/	.
.	.	.	.	16BB/	.
.	.	.	.	16G\	8.G\
.	.	.	.	16D/	.
.	.	.	.	16BB/	.
.	.	.	.	16GG/	16B\
2C/	.	2C/	.	4r	4E\
!	!	!	!	!	!LO:TX:t=P:problem:kreska pseudotaktowa
.	.	.	.	8.C/	4r
!	!	!	!	!LO:TX:t=P:problem:kreska pseudotaktowa	!
.	.	.	.	16E\	.
=23-	=23-	=23-	=23-	=23-	=23-
2AA/	-	2AA/	-	16AA/	2r
.	.	.	.	16E\	.
.	.	.	.	16E\	.
.	.	.	.	32Fny\	.
.	.	.	.	32G\	.
.	.	.	.	16A\	.
.	.	.	.	16A\	.
.	.	.	.	16E\	.
.	.	.	.	16E\	.
!LO:TX:t=P:problem:kreska pseudotaktowa	!	!LO:TX:t=P:problem:kreska pseudotaktowa	!	!	!
2D/	#	2D/	#	4F#X\	16r
.	.	.	.	.	16A\
.	.	.	.	.	16A\
.	.	.	.	.	32B\
.	.	.	.	.	32c\
!	!	!	!	!LO:TX:t=P:problem:kreska pseudotaktowa	!
.	.	.	.	4r	16d\
.	.	.	.	.	16d\
.	.	.	.	.	16A\
!	!	!	!	!	!LO:TX:t=P:problem:kreska pseudotaktowa
.	.	.	.	.	16A\
=24-	=24-	=24-	=24-	=24-	=24-
2BB/	6	2BB/	6	16r	4B\
.	.	.	.	16D/	.
.	.	.	.	16D/	.
.	.	.	.	32E\	.
.	.	.	.	32Fny\	.
*	*	*	*	*custos:G	*
!	!	!	!	!LO:LB:g=original	!
.	.	.	.	16G\	4r
.	.	.	.	16G\	.
.	.	.	.	16D/	.
.	.	.	.	16D/	.
*	*	*	*	*	*custos:G
!	!	!	!	!	!LO:LB:g=original
2C/	.	2C/	.	4E\	16r
.	.	.	.	.	16G\
.	.	.	.	.	16G\
.	.	.	.	.	32A\
.	.	.	.	.	32B\
!	!	!	!	!LO:TX:t=P:problem:kreska pseudotaktowa	!
.	.	.	.	4r	16c\
.	.	.	.	.	16c\
.	.	.	.	.	16G\
!	!	!	!	!	!LO:TX:t=P:problem:kreska pseudotaktowa
.	.	.	.	.	16G\
*custos:F	*	*custos:F	*	*	*
!LO:LB:g=original	!	!LO:LB:g=original	!	!	!
=25-	=25-	=25-	=25-	=25-	=25-
2F\	.	2F\	.	4r	4A\
.	.	.	.	8.F\	4r
.	.	.	.	16A\	.
2D/	5:6	2D/	5:6	4D/	4r
.	.	.	.	4r	8.B\
!	!	!	!	!	!LO:TX:t=P:problem:kreska pseudotaktowa
.	.	.	.	.	16d\
=26-	=26-	=26-	=26-	=26-	=26-
2E\	.	2E\	.	4r	4G\
.	.	.	.	8.E\	8.G\
.	.	.	.	16G\	16B\
4C/	.	4C/	.	4C/	8E\
.	.	.	.	.	16E\
.	.	.	.	.	16Fny\
4BB/	6	4BB/	6	8BB/	4.G\
.	.	.	.	16BB/	.
!	!	!	!	!LO:TX:t=P:problem:kreska pseudotaktowa	!
.	.	.	.	16C/	.
=27-	=27-	=27-	=27-	=27-	=27-
2D/	4#r	2D/	4#r	4.D/	.
.	.	.	.	.	8G\
.	.	.	.	.	4F#X\
.	.	.	.	8D/	.
!	!	!	!	!	!LO:TX:t=P:problem:kreska pseudotaktowa
4GG/	.	4GG/	.	16GG/	2G\
.	.	.	.	16BB/	.
.	.	.	.	16BB/	.
.	.	.	.	32C/	.
.	.	.	.	32D/	.
4FF/	.	4FF/	.	16E\	.
.	.	.	.	16E\	.
.	.	.	.	16BB/	.
!	!	!	!	!LO:TX:t=P:problem:kreska pseudotaktowa	!
.	.	.	.	16BB/	.
=28-	=28-	=28-	=28-	=28-	=28-
2AA/	#	2AA/	#	4C#X/	16r
.	.	.	.	.	16E\
.	.	.	.	.	16E\
.	.	.	.	.	32Fny\
.	.	.	.	.	32G\
.	.	.	.	4r	16A\
.	.	.	.	.	16A\
.	.	.	.	.	16E\
.	.	.	.	.	16E\
2FF#X/	.	2FF#X/	.	16r	4F#X\
.	.	.	.	16AA/	.
.	.	.	.	16AA/	.
.	.	.	.	32BB/	.
.	.	.	.	32C#/	.
.	.	.	.	16D/	4r
.	.	.	.	16D/	.
.	.	.	.	16AA/	.
!	!	!	!	!LO:TX:t=P:problem:kreska pseudotaktowa	!
.	.	.	.	16AA/	.
=29-	=29-	=29-	=29-	=29-	=29-
2GG/	.	2GG/	.	4BB/	16r
.	.	.	.	.	16D/
.	.	.	.	.	16D/
.	.	.	.	.	32E\
.	.	.	.	.	32Fny\
*	*	*	*	*	*custos:G
!	!	!	!	!	!LO:LB:g=original
.	.	.	.	4r	16G\
.	.	.	.	.	16G\
.	.	.	.	.	16D/
.	.	.	.	.	16D/
*	*	*	*	*custos:E	*
!	!	!	!	!LO:LB:g=original	!
2C/	.	2C/	.	8.E\	4E\
.	.	.	.	16G\	.
!	!	!	!	!LO:TX:t=P:problem:kreska pseudotaktowa	!
.	.	.	.	4Cny/	8.E\
!	!	!	!	!	!LO:TX:t=P:problem:kreska pseudotaktowa
.	.	.	.	.	16G\
=30-	=30-	=30-	=30-	=30-	=30-
2AA/	.	2AA/	.	8.C/	4C/
.	.	.	.	16E\	.
.	.	.	.	4AA/	8.C/
.	.	.	.	.	16F\
!LO:TX:t=P:problem:kreska pseudotaktowa	!	!LO:TX:t=P:problem:kreska pseudotaktowa	!	!	!
2FFny/	.	2FFny/	.	4r	8AA/
.	.	.	.	.	16A\
.	.	.	.	.	16B\
.	.	.	.	8.F\	4.c\
!	!	!	!	!LO:TX:t=P:problem:kreska pseudotaktowa	!
.	.	.	.	16A\	.
=31-	=31-	=31-	=31-	=31-	=31-
2GG/	4:3	2GG/	4:3	4.D/	.
.	.	.	.	.	8c\
.	.	.	.	.	4B\
.	.	.	.	8D/	.
2C/	.	2C/	.	4C/	8c\
.	.	.	.	.	8G\
!	!	!	!	!LO:TX:t=P:problem:kreska pseudotaktowa	!
.	.	.	.	4r	8E\
.	.	.	.	.	8C/
=32-	=32-	=32-	=32-	=32-	=32-
2AA/	.	2AA/	.	8A\	2r
.	.	.	.	8E\	.
.	.	.	.	8C/	.
.	.	.	.	8AA/	.
2FF/	.	2FF/	.	2r	8F\
.	.	.	.	.	8C/
.	.	.	.	.	8AA/
!	!	!	!	!	!LO:TX:t=P:problem:kreska pseudotaktowa
.	.	.	.	.	8FF/
=33-	=33-	=33-	=33-	=33-	=33-
2DD/	.	2DD/	.	8D/	8r
.	.	.	.	8AA/	8A\
.	.	.	.	8FF/	8A\
.	.	.	.	8DD/	8A\
4D/	-	4D/	-	4r	8F\
.	.	.	.	.	8A\
!LO:TX:t=P:problem:kreska pseudotaktowa	!	!LO:TX:t=P:problem:kreska pseudotaktowa	!	!	!
4C/	6	4C/	6	8r	8E\
!	!	!	!	!LO:TX:t=P:problem:kreska pseudotaktowa	!LO:TX:t=P:problem:kreska pseudotaktowa
.	.	.	.	8C/	8A\
=34-	=34-	=34-	=34-	=34-	=34-
4D/	-	4D/	-	4D/	8D/
.	.	.	.	.	8A\
4C/	6	4C/	6	8r	8C/
.	.	.	.	8C/	8A\
2BB/	7:6 #	2BB/	7:6 #	4BB/	8BB/
.	.	.	.	.	8A\
!	!	!	!	!LO:TX:t=P:problem:kreska pseudotaktowa	!
.	.	.	.	4r	8G#X\
.	.	.	.	.	8BB/
*	*	*	*	*	*custos:C
!	!	!	!	!	!LO:LB:g=original
=35-	=35-	=35-	=35-	=35-	=35-
[2AA/	.	[2AA/	.	8r	16C/
.	.	.	.	.	16AA/
.	.	.	.	8E\	16E\
.	.	.	.	.	16C/
.	.	.	.	8E\	16A\
.	.	.	.	.	16E\
.	.	.	.	8E\	16C/
.	.	.	.	.	16AA/
4AA/]	.	4AA/]	.	8C/	4r
.	.	.	.	8E\	.
4GG/	6	4GG/	6	8BB/	8r
!	!	!	!	!LO:TX:t=P:problem:kreska pseudotaktowa	!LO:TX:t=P:problem:kreska pseudotaktowa
.	.	.	.	8E\	8B\
=36-	=36-	=36-	=36-	=36-	=36-
4AA/	.	4AA/	.	8AA/	4.c\
.	.	.	.	8E\	.
4GG/	6	4GG/	6	8GG/	.
.	.	.	.	8E\	8B\
*	*	*	*	*custos:FF	*
!LO:TX:t=P:problem:kreska pseudotaktowa	!	!LO:TX:t=P:problem:kreska pseudotaktowa	!	!LO:LB:g=original	!
2FF/	7:6	2FF/	7:6	8FF/	16A\
.	.	.	.	.	16A\
.	.	.	.	8E\	16A\
.	.	.	.	.	32B\
.	.	.	.	.	32c\
.	.	.	.	8D/	16d\
.	.	.	.	.	16d\
!	!	!	!	!LO:TX:t=P:problem:kreska pseudotaktowa	!
.	.	.	.	8FF/	16A\
!	!	!	!	!	!LO:TX:t=P:problem:kreska pseudotaktowa
.	.	.	.	.	16A\
=37-	=37-	=37-	=37-	=37-	=37-
2EE/	-	2EE/	-	16GG/	4B\
.	.	.	.	16EE/	.
.	.	.	.	16BB/	.
.	.	.	.	16GG/	.
.	.	.	.	16E\	4r
.	.	.	.	16BB/	.
.	.	.	.	16GG/	.
.	.	.	.	16EE/	.
!	!	!	!	!LO:TX:t=P:problem:kreska pseudotaktowa	!
2AA/	-	2AA/	-	2r	16C/
.	.	.	.	.	16AA/
.	.	.	.	.	16E\
.	.	.	.	.	16C/
.	.	.	.	.	16A\
.	.	.	.	.	16E\
.	.	.	.	.	16C/
!	!	!	!	!	!LO:TX:t=P:problem:kreska pseudotaktowa
.	.	.	.	.	16AA/
=38-	=38-	=38-	=38-	=38-	=38-
2C/	.	2C/	.	16E\	2r
.	.	.	.	16C/	.
.	.	.	.	16G\	.
.	.	.	.	16E\	.
.	.	.	.	16c\	.
.	.	.	.	16G\	.
.	.	.	.	16E\	.
.	.	.	.	16C/	.
2C#X/	.	2C#X/	.	2r	16r
.	.	.	.	.	16E\
.	.	.	.	.	16E\
.	.	.	.	.	32F\
.	.	.	.	.	32Gny\
.	.	.	.	.	16A\
.	.	.	.	.	16A\
.	.	.	.	.	16E\
!	!	!	!	!	!LO:TX:t=P:problem:kreska pseudotaktowa
.	.	.	.	.	16E\
*	*	*	*	*	*custos:F
!	!	!	!	!	!LO:LB:g=original
=39-	=39-	=39-	=39-	=39-	=39-
2D/	#	2D/	#	16r	4F#X\
.	.	.	.	16A\	.
.	.	.	.	16A\	.
.	.	.	.	32B\	.
.	.	.	.	32c\	.
.	.	.	.	16d\	4r
.	.	.	.	16d\	.
.	.	.	.	16A\	.
.	.	.	.	16A\	.
4G\	.	4G\	.	4c\	2r
4E\	.	4E\	.	8.G\	.
!	!	!	!	!LO:TX:t=P:problem:kreska pseudotaktowa	!
.	.	.	.	16A\	.
*custos:C	*	*custos:C	*	*	*
!LO:LB:g=original	!	!LO:LB:g=original	!	!	!
=40-	=40-	=40-	=40-	=40-	=40-
2Cny/	.	2Cny/	.	16E\	4r
.	.	.	.	16G\	.
.	.	.	.	16G\	.
.	.	.	.	32A\	.
.	.	.	.	32B\	.
.	.	.	.	16c\	8.C/
.	.	.	.	16c\	.
.	.	.	.	16G\	.
.	.	.	.	16G\	16E\
*	*	*	*	*custos:A	*
!	!	!	!	!LO:LB:g=original	!
4AA/	.	4AA/	.	4A\	16AA/
.	.	.	.	.	16C/
.	.	.	.	.	16C/
.	.	.	.	.	32D/
.	.	.	.	.	32E\
4FF/	.	4FF/	.	8.FF/	16Fny\
.	.	.	.	.	16F\
.	.	.	.	.	16C/
!	!	!	!	!	!LO:TX:t=P:problem:kreska pseudotaktowa
.	.	.	.	16AA/	16C/
=41-	=41-	=41-	=41-	=41-	=41-
4DD/	.	4DD/	.	16DD/	4D/
.	.	.	.	16AA/	.
.	.	.	.	16AA/	.
.	.	.	.	32BB/	.
.	.	.	.	32C/	.
8D/	.	8D/	.	16D/	4r
.	.	.	.	16D/	.
8AA/	.	8AA/	.	16AA/	.
.	.	.	.	16AA/	.
4BB/	.	4BB/	.	4BB/	8.G\
.	.	.	.	.	16B\
!LO:TX:t=P:problem:kreska pseudotaktowa	!	!LO:TX:t=P:problem:kreska pseudotaktowa	!	!	!
4C/	.	4C/	.	8.C/	4E\
!	!	!	!	!LO:TX:t=P:problem:kreska pseudotaktowa	!
.	.	.	.	16E\	.
=42-	=42-	=42-	=42-	=42-	=42-
4AA/	.	4AA/	.	4AA/	8.F\
.	.	.	.	.	16A\
4BB/	.	4BB/	.	8.BB/	4D/
.	.	.	.	16D/	.
!	!	!	!	!	!LO:TX:t=P:problem:kreska pseudotaktowa
4GG/	.	4GG/	.	4GG/	2r
4G\	.	4G\	.	8.G\	.
.	.	.	.	16B\	.
=43-	=43-	=43-	=43-	=43-	=43-
4E\	.	4E\	.	4E\	8.E\
.	.	.	.	.	16G\
4C/	.	4C/	.	8.A\	4C/
.	.	.	.	16c\	.
4D/	.	4D/	.	4F\	8.D/
.	.	.	.	.	16F\
!LO:TX:t=P:problem:kreska pseudotaktowa	!	!LO:TX:t=P:problem:kreska pseudotaktowa	!	!LO:TX:t=P:problem:kreska pseudotaktowa	!LO:TX:t=P:problem:kreska pseudotaktowa
4BB/	.	4BB/	.	4r	4BB/
=44-	=44-	=44-	=44-	=44-	=44-
4GG/	.	4GG/	.	4r	16r
.	.	.	.	.	16GG/
.	.	.	.	.	16GG/
.	.	.	.	.	32AA/
.	.	.	.	.	32BB/
8C/	.	8C/	.	8.E\	16C/
.	.	.	.	.	16C/
8GG/	.	8GG/	.	.	16GG/
.	.	.	.	16G\	16GG/
*	*	*	*	*	*custos:AA
!	!	!	!	!	!LO:LB:g=original
8AA/	.	8AA/	.	4C/	16AA/
.	.	.	.	.	16C/
8C/	.	8C/	.	.	16C/
.	.	.	.	.	32D/
.	.	.	.	.	32E\
8F\	.	8F\	.	8.A\	16F\
.	.	.	.	.	16F\
8C/	.	8C/	.	.	16C/
!	!	!	!	!	!LO:TX:t=P:problem:kreska pseudotaktowa
.	.	.	.	16B\	16C/
*	*	*	*	*custos:F	*
!	!	!	!	!LO:LB:g=original	!
=45-	=45-	=45-	=45-	=45-	=45-
4D/	.	4D/	.	16F\	4D/
.	.	.	.	16D/	.
.	.	.	.	16D/	.
.	.	.	.	32E\	.
.	.	.	.	32F\	.
4BB/	.	4BB/	.	16G\	8.B\
.	.	.	.	16G\	.
.	.	.	.	16D/	.
!	!	!	!	!LO:TX:t=P:problem:kreska pseudotaktowa	!
.	.	.	.	16D/	16d\
2C/	.	2C/	.	16E\	4G\
.	.	.	.	16G\	.
.	.	.	.	16G\	.
.	.	.	.	32A\	.
.	.	.	.	32B\	.
.	.	.	.	16c\	8.C/
.	.	.	.	16c\	.
.	.	.	.	16G\	.
!	!	!	!	!LO:TX:t=P:problem:kreska pseudotaktowa	!LO:TX:t=P:problem:kreska pseudotaktowa
.	.	.	.	16G\	16E\
=46-	=46-	=46-	=46-	=46-	=46-
4AA/	.	4AA/	.	16A\	16AA/
.	.	.	.	16C/	16E\
.	.	.	.	16C/	16E\
.	.	.	.	32D/	32F\
.	.	.	.	32E\	32G\
8FF/	.	8FF/	.	16F\	16A\
.	.	.	.	16F\	16A\
8AA/	-	8AA/	-	16C/	16E\
.	.	.	.	16C/	16E\
4DD/	-	4DD/	-	16D/	4F\
.	.	.	.	16AA/	.
.	.	.	.	16AA/	.
.	.	.	.	32BB/	.
.	.	.	.	32C/	.
8D/	.	8D/	.	16D/	8.F\
.	.	.	.	16D/	.
!LO:TX:t=P:problem:kreska pseudotaktowa	!	!LO:TX:t=P:problem:kreska pseudotaktowa	!	!	!
8AA/	.	8AA/	.	16AA/	.
!	!	!	!	!LO:TX:t=P:problem:kreska pseudotaktowa	!LO:TX:t=P:problem:kreska pseudotaktowa
.	.	.	.	16AA/	16A\
=47-	=47-	=47-	=47-	=47-	=47-
2BB/	.	2BB/	.	4BB/	16D/
.	.	.	.	.	16D/
.	.	.	.	.	16D/
.	.	.	.	.	32E\
.	.	.	.	.	32F\
.	.	.	.	8.B\	16G\
.	.	.	.	.	16G\
.	.	.	.	.	16D/
.	.	.	.	16d\	16D/
*	*	*	*	*	*custos:E
!	!	!	!	!	!LO:LB:g=original
2C/	.	2C/	.	4G\	16E\
.	.	.	.	.	16C/
.	.	.	.	.	16G\
.	.	.	.	.	16E\
.	.	.	.	4r	16c\
.	.	.	.	.	16G\
.	.	.	.	.	16E\
!	!	!	!	!	!LO:TX:t=P:problem:kreska pseudotaktowa
.	.	.	.	.	16C/
*	*	*	*	*custos:AA	*
!	!	!	!	!LO:LB:g=original	!
=48-	=48-	=48-	=48-	=48-	=48-
2FF/	3	2FF/	3	16AA/	16r
.	.	.	.	16FF/	16c\
.	.	.	.	16C/	16A\
.	.	.	.	16AA/	16c\
.	.	.	.	16F\	16A\
.	.	.	.	16C/	16F\
.	.	.	.	16AA/	16F\
.	.	.	.	16FF/	32E\
.	.	.	.	.	32D/
[2C/	6 3:4	[2C/	6 3:4	16r	4C/
.	.	.	.	16c\	.
.	.	.	.	16A\	.
.	.	.	.	16c\	.
.	.	.	.	16A\	4r
.	.	.	.	16F\	.
.	.	.	.	16F\	.
.	.	.	.	32E\	.
!	!	!	!	!LO:TX:t=P:problem:kreska pseudotaktowa	!
.	.	.	.	32D/	.
=49-	=49-	=49-	=49-	=49-	=49-
2C/]	5 3	2C/]	5 3	4C/	16r
.	.	.	.	.	16G\
.	.	.	.	.	16E\
.	.	.	.	.	16G\
.	.	.	.	4r	16E\
.	.	.	.	.	16C/
.	.	.	.	.	16C/
.	.	.	.	.	32BB/
.	.	.	.	.	32AA/
[2GG/	6 7:4	[2GG/	6 7:4	16r	4.GG/
.	.	.	.	16G\	.
.	.	.	.	16E\	.
.	.	.	.	16G\	.
.	.	.	.	16E\	.
.	.	.	.	16C/	.
.	.	.	.	16C/	8AA/
.	.	.	.	32BB/	.
.	.	.	.	32AA/	.
=50-	=50-	=50-	=50-	=50-	=50-
4GG/]	.	4GG/]	.	4GG/	16BB/
.	.	.	.	.	16BB/
.	.	.	.	.	16AA/
.	.	.	.	.	16BB/
4FF/	.	4FF/	.	16FF/	4.C/
.	.	.	.	16FF/	.
.	.	.	.	16EE/	.
.	.	.	.	16FF/	.
2GG/	4:3	2GG/	4:3	4.GG/	.
.	.	.	.	.	16D/
.	.	.	.	.	16C/
.	.	.	.	.	4BB/
.	.	.	.	8GG/	.
=51-	=51-	=51-	=51-	=51-	=51-
!LO:TX:t=P:problem:kreska pseudotaktowa	!	!LO:TX:t=P:problem:kreska pseudotaktowa	!	!	!
1C	.	1C	.	1CC	1C
=52-	=52-	=52-	=52-	=52-	=52-
*M3/2	*	*M3/2	*	*M3/2	*M3/2
!LO:TX:b:t=adagio.	!	!LO:TX:b:t=adagio.	!	!LO:TX:b:t=adagio.	!LO:TX:b:t=adagio.
2C/	.	2C/	.	00.r	0.r
2E\	.	2E\	.	.	.
2G\	.	2G\	.	.	.
=53-	=53-	=53-	=53-	=53-	=53-
2F\	.	2F\	.	.	.
2A\	.	2A\	.	.	.
2c\	.	2c\	.	.	.
=54-	=54-	=54-	=54-	=54-	=54-
1.G	.	1.G	.	.	2G\
.	.	.	.	.	2G\
.	.	.	.	.	2G\
*	*	*	*	*	*custos:A
!	!	!	!	!	!LO:PB:g=original
=55-	=55-	=55-	=55-	=55-	=55-
1A	.	1A	.	.	4A\
.	.	.	.	.	8c\
.	.	.	.	.	8B\
.	.	.	.	.	4A\
.	.	.	.	.	8G\
.	.	.	.	.	8F\
2E\	.	2E\	.	.	4E\
!	!	!	!	!	!LO:TX:t=P:problem:kreska pseudotaktowa
.	.	.	.	.	4G\
=56-	=56-	=56-	=56-	=56-	=56-
1F	.	1F	.	00.r	4F\
.	.	.	.	.	8A\
.	.	.	.	.	8G\
.	.	.	.	.	4F\
.	.	.	.	.	8E\
.	.	.	.	.	8D/
!LO:TX:t=P:problem:kreska pseudotaktowa	!	!LO:TX:t=P:problem:kreska pseudotaktowa	!	!	!
2C/	.	2C/	.	.	4C/
!	!	!	!	!	!LO:TX:t=P:problem:kreska pseudotaktowa
.	.	.	.	.	4E\
=57-	=57-	=57-	=57-	=57-	=57-
1D	.	1D	.	.	4D/
.	.	.	.	.	8F\
.	.	.	.	.	8E\
.	.	.	.	.	8D/
.	.	.	.	.	8E\
.	.	.	.	.	8F\
.	.	.	.	.	8G\
2DD/	.	2DD/	.	.	8A\
.	.	.	.	.	8D/
.	.	.	.	.	8C/
!	!	!	!	!	!LO:TX:t=P:problem:kreska pseudotaktowa
.	.	.	.	.	8BB/
=58-	=58-	=58-	=58-	=58-	=58-
1.FF	.	1.FF	.	.	4AA/
.	.	.	.	.	8A\
.	.	.	.	.	8G\
.	.	.	.	.	8F\
.	.	.	.	.	8G\
.	.	.	.	.	8A\
.	.	.	.	.	8B\
.	.	.	.	.	8c\
.	.	.	.	.	8F\
.	.	.	.	.	8E\
.	.	.	.	.	8D/
=59-	=59-	=59-	=59-	=59-	=59-
1.C	.	1.C	.	.	2C/
.	.	.	.	.	2E\
.	.	.	.	.	2G\
*	*	*	*	*	*custos:F
!	!	!	!	!	!LO:LB:g=original
=60-	=60-	=60-	=60-	=60-	=60-
1.F	.	1.F	.	0.r	2F\
.	.	.	.	.	2A\
.	.	.	.	.	2c\
=61-	=61-	=61-	=61-	=61-	=61-
2E\	.	2E\	.	.	2E\
!LO:TX:t=P:problem:kreska pseudotaktowa	!	!LO:TX:t=P:problem:kreska pseudotaktowa	!	!	!
*col	*	*col	*	*	*
1G	4:5	1G	4:5	.	1G
*Xcol	*	*Xcol	*	*	*
=62-	=62-	=62-	=62-	=62-	=62-
1.C	.	1.C	.	2C/	1C
.	.	.	.	2C/	.
.	.	.	.	2C/	2r
*	*	*	*	*custos:E	*
!	!	!	!	!LO:PB:g=original	!
=63-	=63-	=63-	=63-	=63-	=63-
1E	.	1E	.	4E\	00.r
.	.	.	.	8G\	.
.	.	.	.	8F\	.
.	.	.	.	4E\	.
.	.	.	.	8D/	.
.	.	.	.	8C/	.
2BB/	.	2BB/	.	4BB/	.
!	!	!	!	!LO:TX:t=P:problem:kreska pseudotaktowa	!
.	.	.	.	4D/	.
=64-	=64-	=64-	=64-	=64-	=64-
1C	.	1C	.	4C/	.
.	.	.	.	8E\	.
.	.	.	.	8D/	.
.	.	.	.	4C/	.
.	.	.	.	8BB/	.
.	.	.	.	8AA/	.
2GG/	.	2GG/	.	4GG/	.
.	.	.	.	4BB/	.
=65-	=65-	=65-	=65-	=65-	=65-
!LO:TX:t=P:problem:kreska pseudotaktowa	!	!LO:TX:t=P:problem:kreska pseudotaktowa	!	!	!
1.AA	.	1.AA	.	4AA/	.
.	.	.	.	8C/	.
.	.	.	.	8BB/	.
.	.	.	.	8AA/	.
.	.	.	.	8BB/	.
.	.	.	.	8C/	.
.	.	.	.	8D/	.
.	.	.	.	8E\	.
.	.	.	.	8AA/	.
.	.	.	.	8GG/	.
!	!	!	!	!LO:TX:t=P:problem:kreska pseudotaktowa	!
.	.	.	.	8FF/	.
=66-	=66-	=66-	=66-	=66-	=66-
1.EE	.	1.EE	.	4EE/	.
.	.	.	.	8E\	.
.	.	.	.	8D/	.
.	.	.	.	8C/	.
.	.	.	.	8D/	.
.	.	.	.	8E\	.
.	.	.	.	8F\	.
.	.	.	.	8G\	.
.	.	.	.	8C/	.
.	.	.	.	8BB/	.
.	.	.	.	8AA/	.
=67-	=67-	=67-	=67-	=67-	=67-
1.GG	.	1.GG	.	2GG/	0.r
.	.	.	.	2BB/	.
.	.	.	.	2D/	.
*	*	*	*	*custos:C	*
!	!	!	!	!LO:LB:g=original	!
=68-	=68-	=68-	=68-	=68-	=68-
1.C	.	1.C	.	2C/	.
.	.	.	.	2E\	.
.	.	.	.	2G\	.
=69-	=69-	=69-	=69-	=69-	=69-
2BB/	.	2BB/	.	2BB/	1.r
!LO:TX:t=P:problem:kreska pseudotaktowa	!	!LO:TX:t=P:problem:kreska pseudotaktowa	!	!	!
*col	*	*col	*	*	*
1D	4#r	1D	4#r	1D	.
*Xcol	*	*Xcol	*	*	*
=70-	=70-	=70-	=70-	=70-	=70-
1.GG	5:6:5 3:4:3	1.GG	5:6:5 3:4:3	1GG	4r
.	.	.	.	.	8G\
.	.	.	.	.	8F\
.	.	.	.	.	4E\
.	.	.	.	.	8D/
.	.	.	.	.	8C/
.	.	.	.	2r	4BB/
.	.	.	.	.	4D/
=71-	=71-	=71-	=71-	=71-	=71-
!	!	!LO:TX:t=P:problem:kreska pseudotaktowa	!	!	!
1.C	5:6:5 3:4:3	1.C	5:6:5 3:4:3	4r	2C/
.	.	.	.	8c\	.
.	.	.	.	8B\	.
.	.	.	.	4A\	2r
.	.	.	.	8G\	.
.	.	.	.	8F\	.
.	.	.	.	4E\	2r
.	.	.	.	4G\	.
=72-	=72-	=72-	=72-	=72-	=72-
1.FF	.	1.FF	.	1F	2FF/
.	.	.	.	.	2AA/
.	.	.	.	2r	2C/
*custos:BB-	*	*custos:BB-	*	*	*
!LO:LB:g=original	!	!LO:LB:g=original	!	!	!
=73-	=73-	=73-	=73-	=73-	=73-
1.BB-X	.	1.BB-X	.	1.r	2BB-X/
.	.	.	.	.	2D/
.	.	.	.	.	2F\
=74-	=74-	=74-	=74-	=74-	=74-
!LO:TX:t=P:problem:kreska pseudotaktowa	!	!LO:TX:t=P:problem:kreska pseudotaktowa	!	!	!
1.C	.	1.C	.	2G\	2C/
.	.	.	.	2G\	2E\
.	.	.	.	2G\	2G\
=75-	=75-	=75-	=75-	=75-	=75-
1F	.	1F	.	4A\	2F\
.	.	.	.	8c\	.
.	.	.	.	8B\	.
.	.	.	.	4A\	2A\
.	.	.	.	8G\	.
.	.	.	.	8F\	.
2E\	.	2E\	.	4E\	2c\
!	!	!	!	!LO:TX:t=P:problem:kreska pseudotaktowa	!
.	.	.	.	4G\	.
=76-	=76-	=76-	=76-	=76-	=76-
1F	.	1F	.	4F\	1.r
.	.	.	.	8A\	.
.	.	.	.	8G\	.
.	.	.	.	4F\	.
.	.	.	.	8E\	.
.	.	.	.	8D/	.
2C/	.	2C/	.	4C/	.
.	.	.	.	4E\	.
=77-	=77-	=77-	=77-	=77-	=77-
1.D	.	1.D	.	2D/	4r
.	.	.	.	.	8F\
.	.	.	.	.	8E\
.	.	.	.	2r	8D/
.	.	.	.	.	8E\
.	.	.	.	.	8F\
.	.	.	.	.	8G\
.	.	.	.	2r	8A\
.	.	.	.	.	8D/
.	.	.	.	.	8C/
.	.	.	.	.	8BBny/
*	*	*	*	*custos:A	*
!	!	!	!	!LO:LB:g=original	!
=78-	=78-	=78-	=78-	=78-	=78-
2AA/	.	2AA/	.	4r	2AA/
.	.	.	.	8A\	.
.	.	.	.	8G\	.
2D/	.	2D/	.	8F\	2r
.	.	.	.	8G\	.
.	.	.	.	8A\	.
.	.	.	.	8B\	.
2AA/	.	2AA/	.	8c\	2r
.	.	.	.	8F\	.
.	.	.	.	8E\	.
!	!	!	!	!LO:TX:t=P:problem:kreska pseudotaktowa	!
.	.	.	.	8D/	.
*	*	*	*	*	*custos:C
!	!	!	!	!	!LO:LB:g=original
=79-	=79-	=79-	=79-	=79-	=79-
1C	.	1C	.	2C/	2C/
.	.	.	.	2r	2C/
!LO:TX:t=P:problem:kreska pseudotaktowa	!	!LO:TX:t=P:problem:kreska pseudotaktowa	!	!	!
2AA/	.	2AA/	.	2r	2C/
=80-	=80-	=80-	=80-	=80-	=80-
1EE	.	1EE	.	2EE/	4E\
.	.	.	.	.	8G\
.	.	.	.	.	8F\
.	.	.	.	2GG/	4E\
.	.	.	.	.	8D/
.	.	.	.	.	8C/
2GG/	.	2GG/	.	2BB/	4BB/
.	.	.	.	.	4D/
=81-	=81-	=81-	=81-	=81-	=81-
1AA	.	1AA	.	2AA/	4C/
.	.	.	.	.	8E\
.	.	.	.	.	8D/
.	.	.	.	2C/	4C/
.	.	.	.	.	8BB/
.	.	.	.	.	8AA/
!LO:TX:t=P:problem:kreska pseudotaktowa	!	!LO:TX:t=P:problem:kreska pseudotaktowa	!	!	!
2GG/	6	2GG/	6	2E\	4GG/
.	.	.	.	.	4BB/
=82-	=82-	=82-	=82-	=82-	=82-
1.AA	.	1.AA	.	1.r	4AA/
.	.	.	.	.	8C/
.	.	.	.	.	8BB/
.	.	.	.	.	8AA/
.	.	.	.	.	8BB/
.	.	.	.	.	8C/
.	.	.	.	.	8D/
.	.	.	.	.	8E\
.	.	.	.	.	8AA/
.	.	.	.	.	8GG/
.	.	.	.	.	8FF/
=83-	=83-	=83-	=83-	=83-	=83-
2E\	.	2E\	.	4r	2EE/
.	.	.	.	8E\	.
.	.	.	.	8D/	.
2.C/	.	2.C/	.	8C/	2r
.	.	.	.	8D/	.
.	.	.	.	8E\	.
.	.	.	.	8F\	.
.	.	.	.	8G\	2r
.	.	.	.	8C/	.
8BBny/	.	8BBny/	.	8BB/	.
8AA/	.	8AA/	.	8AA/	.
=84-	=84-	=84-	=84-	=84-	=84-
2GG/	.	2GG/	.	4GG/	2GG/
.	.	.	.	8B\	.
.	.	.	.	8A\	.
2BB/	.	2BB/	.	4G\	2BB/
.	.	.	.	8F\	.
.	.	.	.	8E\	.
2D/	-	2D/	-	4D/	2D/
.	.	.	.	4F\	.
*	*	*	*	*custos:E	*
!	!	!	!	!LO:LB:g=original	!
=85-	=85-	=85-	=85-	=85-	=85-
1C	.	1C	.	4E\	2C/
.	.	.	.	8G\	.
.	.	.	.	8F\	.
.	.	.	.	4E\	2E\
.	.	.	.	8D/	.
.	.	.	.	8C/	.
!	!	!	!	!	!LO:TX:t=P:problem:kreska pseudotaktowa
2BB/	.	2BB/	.	4BB/	2G\
.	.	.	.	4D/	.
=86-	=86-	=86-	=86-	=86-	=86-
1.C	.	1.C	.	2C/	2G\
.	.	.	.	2r	2G\
.	.	.	.	2r	2G\
*	*	*	*	*	*custos:A
!	!	!	!	!	!LO:LB:g=original
=87-	=87-	=87-	=87-	=87-	=87-
2FF/	.	2FF/	.	2C/	4A\
.	.	.	.	.	8c\
.	.	.	.	.	8B\
2AA/	.	2AA/	.	2C/	4A\
.	.	.	.	.	8G\
.	.	.	.	.	8F\
!LO:TX:t=P:problem:kreska pseudotaktowa	!	!LO:TX:t=P:problem:kreska pseudotaktowa	!	!	!
2C/	.	2C/	.	2C/	4E\
.	.	.	.	.	4G\
=88-	=88-	=88-	=88-	=88-	=88-
1D	.	1D	.	4D/	4F\
.	.	.	.	8F\	8A\
.	.	.	.	8E\	8G\
.	.	.	.	4D/	4F\
.	.	.	.	8C/	8E\
.	.	.	.	8BB/	8D/
2AA/	.	2AA/	.	4AA/	4C/
!	!	!	!	!LO:TX:t=P:problem:kreska pseudotaktowa	!LO:TX:t=P:problem:kreska pseudotaktowa
.	.	.	.	4C/	4E\
=89-	=89-	=89-	=89-	=89-	=89-
1BB-X	.	1BB-X	.	4BB-X/	4D/
.	.	.	.	8D/	8F\
.	.	.	.	8C/	8E\
.	.	.	.	4BB-X/	8D/
.	.	.	.	.	8E\
.	.	.	.	8AA/	8F\
.	.	.	.	8GG/	8G\
2FF/	.	2FF/	.	4FF/	8A\
.	.	.	.	.	8F\
.	.	.	.	4AA/	8E\
.	.	.	.	.	8D/
=90-	=90-	=90-	=90-	=90-	=90-
1.C	5:6:5 3:4:3	1.C	5:6:5 3:4:3	4C/	2C/
.	.	.	.	8c\	.
.	.	.	.	8B\	.
.	.	.	.	4A\	2r
.	.	.	.	8G\	.
.	.	.	.	8F\	.
.	.	.	.	4E\	2r
.	.	.	.	4G\	.
=91-	=91-	=91-	=91-	=91-	=91-
1.FF	.	1.FF	.	2F\	4r
.	.	.	.	.	8A\
.	.	.	.	.	8G\
.	.	.	.	2r	8F\
.	.	.	.	.	8G\
.	.	.	.	.	8A\
.	.	.	.	.	8B\
.	.	.	.	2r	8c\
.	.	.	.	.	8F\
.	.	.	.	.	8E\
.	.	.	.	.	8D/
*custos:C	*	*custos:C	*	*	*
!LO:LB:g=original	!	!LO:LB:g=original	!	!	!
=92-	=92-	=92-	=92-	=92-	=92-
1.C	.	1.C	.	4r	2C/
.	.	.	.	8E\	.
.	.	.	.	8D/	.
.	.	.	.	8C/	2r
.	.	.	.	8D/	.
.	.	.	.	8E\	.
.	.	.	.	8F\	.
.	.	.	.	8G\	2r
.	.	.	.	8C/	.
.	.	.	.	8BBny/	.
.	.	.	.	8AA/	.
*	*	*	*	*	*custos:D
!	!	!	!	!	!LO:LB:g=original
=93-	=93-	=93-	=93-	=93-	=93-
1.GG	.	1.GG	.	2GG/	2D/
.	.	.	.	2r	2D/
.	.	.	.	2r	2D/
*	*	*	*	*custos:CC	*
!	!	!	!	!LO:LB:g=original	!
=94-	=94-	=94-	=94-	=94-	=94-
1C	.	1C	.	1.r	4E\
.	.	.	.	.	8G\
.	.	.	.	.	8F\
.	.	.	.	.	4E\
.	.	.	.	.	8D/
.	.	.	.	.	8C/
2GG/	.	2GG/	.	.	4BB/
.	.	.	.	.	4D/
=95-	=95-	=95-	=95-	=95-	=95-
2CC/	.	2CC/	.	2CC/	4C/
.	.	.	.	.	8E\
.	.	.	.	.	8D/
2EE/	.	2EE/	.	2EE/	4C/
.	.	.	.	.	8BB/
.	.	.	.	.	8AA/
!LO:TX:t=P:problem:kreska pseudotaktowa	!	!LO:TX:t=P:problem:kreska pseudotaktowa	!	!	!
2GG/	.	2GG/	.	2GG/	4GG/
!	!	!	!	!	!LO:TX:t=P:problem:kreska pseudotaktowa
.	.	.	.	.	4BB/
=96-	=96-	=96-	=96-	=96-	=96-
2FF/	.	2FF/	.	2FF/	4AA/
.	.	.	.	.	8A\
.	.	.	.	.	8G\
2AA/	6	2AA/	6	2AA/	4F\
.	.	.	.	.	8E\
.	.	.	.	.	8D/
2C/	.	2C/	.	2C/	4C/
.	.	.	.	.	4E\
=97-	=97-	=97-	=97-	=97-	=97-
2GG/	.	2GG/	.	2GG/	4D/
.	.	.	.	.	8B\
.	.	.	.	.	8A\
2BBny/	6	2BBny/	6	2BB/	4G\
.	.	.	.	.	8F\
.	.	.	.	.	8E\
2D/	.	2D/	.	2D/	4D/
.	.	.	.	.	4F\
=98-	=98-	=98-	=98-	=98-	=98-
1C	.	1C	.	2C/	4E\
.	.	.	.	.	8G\
.	.	.	.	.	8F\
.	.	.	.	2E\	4E\
.	.	.	.	.	8D/
.	.	.	.	.	8C/
!	!	!	!	!LO:TX:t=P:problem:kreska pseudotaktowa	!
2GG/	.	2GG/	.	2G\	4BB/
.	.	.	.	.	4D/
*	*	*	*	*	*custos:C
!	!	!	!	!	!LO:LB:g=original
=99-	=99-	=99-	=99-	=99-	=99-
2C/	.	2C/	.	4r	4C/
.	.	.	.	8E\	8C/
.	.	.	.	8D/	8BB/
2AA/	.	2AA/	.	4C/	4AA/
.	.	.	.	8BB/	8GG/
.	.	.	.	8AA/	8FF/
2EE/	.	2EE/	.	4GG/	4EE/
!	!	!	!	!LO:TX:t=P:problem:kreska pseudotaktowa	!LO:TX:t=P:problem:kreska pseudotaktowa
.	.	.	.	4BB/	4GG/
=100-	=100-	=100-	=100-	=100-	=100-
2FF/	.	2FF/	.	4AA/	4FF/
.	.	.	.	8F\	8A\
.	.	.	.	8E\	8G\
2D/	.	2D/	.	8D/	8F\
.	.	.	.	8E\	8G\
.	.	.	.	8F\	8A\
.	.	.	.	8G\	8B\
2AA/	.	2AA/	.	8A\	8c\
.	.	.	.	8D/	8F\
.	.	.	.	8C/	8E\
.	.	.	.	8BB/	8D/
*	*	*	*	*custos:AA	*
!	!	!	!	!LO:LB:g=original	!
=101-	=101-	=101-	=101-	=101-	=101-
2AA/	.	2AA/	.	4AA/	2C/
.	.	.	.	8A\	.
.	.	.	.	8G\	.
2F\	.	2F\	.	8F\	2r
.	.	.	.	8G\	.
.	.	.	.	8A\	.
.	.	.	.	8B\	.
2C/	.	2C/	.	8c\	2r
.	.	.	.	8F\	.
.	.	.	.	8E\	.
.	.	.	.	8D/	.
=102-	=102-	=102-	=102-	=102-	=102-
1.C	.	1.C	.	2C/	4r
.	.	.	.	.	8E\
.	.	.	.	.	8D/
.	.	.	.	2r	8C/
.	.	.	.	.	8D/
.	.	.	.	.	8E\
.	.	.	.	.	8F\
.	.	.	.	2r	8G\
.	.	.	.	.	8C/
.	.	.	.	.	8BB/
.	.	.	.	.	8AA/
=103-	=103-	=103-	=103-	=103-	=103-
1.GG	7:4:3	1.GG	7:4:3	1.r	4GG/
.	.	.	.	.	8G\
.	.	.	.	.	8F\
.	.	.	.	.	4E\
.	.	.	.	.	8D/
.	.	.	.	.	8C/
.	.	.	.	.	4BB/
.	.	.	.	.	4D/
=104-	=104-	=104-	=104-	=104-	=104-
1C	.	1C	.	4r	1C
.	.	.	.	8G\	.
.	.	.	.	8F\	.
.	.	.	.	4E\	.
.	.	.	.	8D/	.
.	.	.	.	8C/	.
2GG/	.	2GG/	.	4BB/	2D/
.	.	.	.	4D/	.
*	*	*	*	*	*custos:E
!	!	!	!	!	!LO:LB:g=original
=105-	=105-	=105-	=105-	=105-	=105-
2EE/	.	2EE/	.	1C	2E\
*col	*	*col	*	*	*
1GG	.	1GG	.	.	1D
.	.	.	.	2BB/	.
*Xcol	*	*Xcol	*	*	*
=106-	=106-	=106-	=106-	=106-	=106-
1.C	.	1.C	.	1.C	1.C
=107-	=107-	=107-	=107-	=107-	=107-
*M2/2	*	*M2/2	*	*M2/2	*M2/2
*met(C|)	*	*met(C|)	*	*met(C|)	*met(C|)
[0C	.	[0C	.	2r	8r
.	.	.	.	.	16E\
.	.	.	.	.	16F\
.	.	.	.	.	8G\
.	.	.	.	.	8G\
.	.	.	.	8r	8E\
.	.	.	.	16E\	16C/
.	.	.	.	16F\	16D/
.	.	.	.	8G\	8E\
.	.	.	.	8G\	8E\
=108-	=108-	=108-	=108-	=108-	=108-
.	.	.	.	8E\	4C/
.	.	.	.	16C/	.
.	.	.	.	16D/	.
.	.	.	.	8E\	8r
.	.	.	.	8E\	8G\
.	.	.	.	8C/	8.E\
.	.	.	.	8G\	.
.	.	.	.	.	16D/
.	.	.	.	8.E\	8.C/
.	.	.	.	16D/	16D/
*	*	*	*	*custos:C	*
!	!	!	!	!LO:LB:g=original	!
=109-	=109-	=109-	=109-	=109-	=109-
2C/]	.	2C/]	.	8.C/	8.E\
.	.	.	.	16D/	16F\
.	.	.	.	8.E\	8.G\
.	.	.	.	16F\	16A\
[2GG/	.	[2GG/	.	8.G\	8.B\
.	.	.	.	16A\	16c\
.	.	.	.	8.B\	4d\
!	!	!	!	!LO:TX:t=P:problem:kreska pseudotaktowa	!
.	.	.	.	16c\	.
=110-	=110-	=110-	=110-	=110-	=110-
2GG/]	.	2GG/]	.	4d\	16r
.	.	.	.	.	16D/
.	.	.	.	.	16D/
.	.	.	.	.	32E\
.	.	.	.	.	32F\
.	.	.	.	4r	16G\
.	.	.	.	.	16G\
.	.	.	.	.	16D/
.	.	.	.	.	16D/
*custos:C	*	*custos:C	*	*	*
!LO:LB:g=original	!	!LO:LB:g=original	!	!	!
(>2C/	.	(>2C/	.	16r	4E\
.	.	.	.	16G\	.
.	.	.	.	16G\	.
.	.	.	.	32A\	.
.	.	.	.	32B\	.
.	.	.	.	16c\	4r
.	.	.	.	16c\	.
.	.	.	.	16G\	.
.	.	.	.	16G\	.
*	*	*	*	*	*custos:F
!	!	!	!	!	!LO:LB:g=original
=111-	=111-	=111-	=111-	=111-	=111-
[>0FF	.	[>0FF	.	4A\	8F\
.	.	.	.	.	8C/
.	.	.	.	4r	8AA/
.	.	.	.	.	8FF/
.	.	.	.	8F\	4r
.	.	.	.	8C/	.
.	.	.	.	8AA/	8r
.	.	.	.	8FF/	16A\
.	.	.	.	.	16G\
=112-	=112-	=112-	=112-	=112-	=112-
.	.	.	.	8r	16F\
.	.	.	.	.	16G\
.	.	.	.	16A\	16A\
.	.	.	.	16G\	16B\
.	.	.	.	16F\	16c\
.	.	.	.	16G\	16F\
.	.	.	.	16A\	16E\
.	.	.	.	16B\	16D/
.	.	.	.	16c\	4C/
.	.	.	.	16F\	.
.	.	.	.	16E\	.
.	.	.	.	16D/	.
.	.	.	.	4C/	4r
*	*	*	*	*custos:F	*
!	!	!	!	!LO:LB:g=original	!
=113-	=113-	=113-	=113-	=113-	=113-
1FF]	.	1FF]	.	8r	8r
.	.	.	.	16F\	16A\
.	.	.	.	16G\	16B\
.	.	.	.	8A\	8c\
.	.	.	.	8A\	8c\
.	.	.	.	8.F\	8.A\
.	.	.	.	16E\	16G\
.	.	.	.	8.E\	8.G\
.	.	.	.	16D/	16F\
=114-	=114-	=114-	=114-	=114-	=114-
0C;	.	0C;	.	0E;	0G;<
==	==	==	==	==	==
*-	*-	*-	*-	*-	*-
!!!system-decoration: [(s1,s2)]s3,s4
!!!RDF**kern: > = above
!!!RDF**kern: < = below
!!!ENC: Andrzej Gręziak
!!!END: 2022-11-12
!!!ENC: Natalia Wrzos
!!!END: 2022-11-30
